X:990
T:Iggie and Squiggie
M:C|
L:1/8
K:D
(fg)fe d/d/d fd|B2 dB BAFA|fgfe d/d/d fd|ABde fe c2|
(fg)fe d/d/d fd|B2 dB BAFA|fgfe dedc|1 BABc d2 z2:|2 BABc d2 fg||
ad d/d/d adbd|ad d/d/d agfg|ad d/d/d adbd|(fe)de fecf|
ad d/d/d adbd|ad d/d/d g2 fg|(fg)fe dedc|1 BABc d2 fg :|2 BABc d2 z2 |>|
